src/assets/aqua.svg

<svg width="112" height="22" viewBox="0 0 112 22" fill="none" xmlns="http://www.w3.org/2000/svg">
<path fill-rule="evenodd" clip-rule="evenodd" d="M0.00164398 14.9548L12.5987 0.65625L25.1973 14.9548L17.511 21.3436H7.69617L0 14.9548H0.00164398ZM12.6019 18.8111H12.7383C15.2642 18.7404 17.4502 16.8172 17.4453 14.3569C17.4453 13.5358 17.0544 12.3927 16.6586 11.7291C16.4407 11.3153 15.1246 9.00335 12.7103 4.79339C12.6742 4.69157 12.5231 4.69157 12.4886 4.79339C12.4886 4.79339 8.95423 10.9441 8.54035 11.7341C8.14454 12.3976 7.75366 13.5407 7.75366 14.3619C7.75366 16.8172 9.93965 18.7421 12.4689 18.8127H12.6003L12.6019 18.8111Z" fill="#00C7F9"/>
<path d="M51.5756 19.3329H47.9476L42.7676 9.37026L37.5875 19.3329H33.9546L42.7692 2.63159L51.5773 19.3329H51.5756Z" fill="#00C7F9"/>
<path d="M69.1 16.9272C69.6305 16.4181 70.0871 15.8383 70.4714 15.188C71.2302 13.9036 71.6096 12.4715 71.6096 10.8915C71.6096 9.31155 71.2269 7.87612 70.4599 6.58357C69.6929 5.29102 68.6483 4.27274 67.3246 3.52874C66.0008 2.78475 64.5178 2.41357 62.877 2.41357C61.2363 2.41357 59.773 2.78475 58.441 3.52874C57.109 4.2711 56.0612 5.28938 55.2942 6.58357C54.5272 7.87612 54.1445 9.31319 54.1445 10.8915C54.1445 12.4698 54.5272 13.9036 55.2942 15.188C56.0612 16.4739 57.109 17.484 58.441 18.2181C59.75 18.9408 61.21 19.3087 62.8196 19.3202L72.861 19.3317V16.9256H69.1016L69.1 16.9272ZM67.5151 13.5127C67.047 14.2994 66.4049 14.917 65.5902 15.367C64.7888 15.8088 63.897 16.0338 62.9115 16.0404H62.8409C61.8571 16.0321 60.9637 15.8088 60.1622 15.3653C59.3476 14.9153 58.7054 14.2978 58.2373 13.5111C57.7693 12.7244 57.5344 11.849 57.5344 10.8833C57.5344 9.91759 57.7693 9.03892 58.2373 8.24729C58.7054 7.45731 59.3476 6.83321 60.1622 6.37827C60.9768 5.92333 61.8818 5.69668 62.8754 5.69668C63.8707 5.69668 64.774 5.92333 65.5886 6.37827C66.4032 6.83321 67.0454 7.45567 67.5135 8.24729C67.9815 9.03892 68.2164 9.91595 68.2164 10.8833C68.2164 11.8507 67.9815 12.726 67.5135 13.5111L67.5151 13.5127Z" fill="#00C7F9"/>
<path d="M91.5477 2.66309V12.4237C91.5477 13.8263 91.2439 15.0712 90.6378 16.1585C90.0318 17.2457 89.1761 18.0883 88.0741 18.6877C86.9704 19.2872 85.7189 19.5861 84.3163 19.5861C82.9138 19.5861 81.6409 19.2872 80.5471 18.6877C79.4516 18.0899 78.6009 17.2425 77.9948 16.147C77.3888 15.0515 77.085 13.8115 77.085 12.4254V2.66473H80.5356V12.4254C80.5356 13.2137 80.6933 13.9101 81.0086 14.5178C81.3239 15.1238 81.7657 15.5935 82.3324 15.9236C82.899 16.2537 83.5609 16.4196 84.318 16.4196C85.0751 16.4196 85.7157 16.2537 86.2921 15.9236C86.867 15.5919 87.312 15.1238 87.6274 14.5178C87.9427 13.9117 88.1004 13.2137 88.1004 12.4254V2.66473H91.551L91.5477 2.66309Z" fill="#00C7F9"/>
<path d="M111.998 19.3329H108.37L103.19 9.37026L98.0104 19.3329H94.3774L103.192 2.63159L112 19.3329H111.998Z" fill="#00C7F9"/>
</svg>

<svg xmlns="http://www.w3.org/2000/svg" width="112" height="22" fill="none" viewBox="0 0 112 22"><path fill="#00c7f9" fill-rule="evenodd" d="M.002 14.955 12.599.656l12.598 14.299-7.686 6.389H7.696L0 14.954zm12.6 3.856h.136c2.526-.07 4.712-1.994 4.707-4.454 0-.821-.39-1.964-.786-2.628q-.327-.621-3.949-6.936c-.036-.101-.187-.101-.221 0 0 0-3.535 6.151-3.949 6.941-.395.664-.786 1.807-.786 2.628 0 2.455 2.186 4.38 4.715 4.45z" clip-rule="evenodd"/><path fill="#00c7f9" d="M51.576 19.333h-3.628l-5.18-9.963-5.18 9.963h-3.633l8.814-16.701 8.808 16.7zM69.1 16.927q.795-.764 1.371-1.739 1.14-1.926 1.139-4.296t-1.15-4.308a8.3 8.3 0 0 0-3.135-3.055q-1.986-1.115-4.448-1.115c-1.64 0-3.104.37-4.436 1.115a8.27 8.27 0 0 0-3.147 3.055q-1.15 1.94-1.15 4.308 0 2.369 1.15 4.296a8.2 8.2 0 0 0 3.147 3.03q1.964 1.084 4.379 1.102l10.041.012v-2.406zm-1.585-3.414a5 5 0 0 1-1.925 1.854q-1.2.664-2.679.673h-.07q-1.476-.01-2.679-.675a5.02 5.02 0 0 1-2.628-4.482 5.08 5.08 0 0 1 2.628-4.505q1.223-.682 2.713-.681 1.493 0 2.714.681a5.08 5.08 0 0 1 2.628 4.505q-.001 1.451-.704 2.628zm24.033-10.85v9.76q0 2.104-.91 3.736a6.35 6.35 0 0 1-2.564 2.529q-1.655.899-3.758.898c-1.402 0-2.675-.299-3.769-.898a6.3 6.3 0 0 1-2.552-2.541q-.91-1.642-.91-3.722v-9.76h3.45v9.76q0 1.182.474 2.093a3.4 3.4 0 0 0 1.323 1.406q.85.495 1.986.496c.757 0 1.398-.166 1.974-.496q.863-.498 1.335-1.406.474-.91.473-2.093v-9.76h3.451zm20.45 16.67h-3.628l-5.18-9.963-5.18 9.963h-3.633l8.815-16.701 8.808 16.7z"/></svg>
